!!!COM: Anon.
!!!OTL: Ukiyo-Bushi
!!!OTC: Japanese Popular Music: A Collection of The Popular Music of Japan Rendered in to the Staff notation.
!!!CNT: Nippon, Japanese
!!!TXO: Nippon, Japan
!!!OCY: Nippon, Japan
!!!ODT: <1892///
!!!PSR: S. Miki & Co.
!!!PSP: Osaka, Nippon
!!!PDT: 1892///
!!!PPE: Y Nagai & K. Kobatake
!!!PED: Revised Second Edition
!!!PPG: page 105
!! Allegro
**kern	**silbe
*ICstr	*Lnippon
*ICvox	*
*Ikoto	*
*Ivox	*
*clefG2	*
*k[]	*
*M2/4	*
qb	.
8cc	.
8b	.
=1	=1
8cc	.
16ee	.
16ee	.
8ee	.
8a	.
=2	=2
4b	.
qb	.
8cc	.
8b	.
=3	=3
8cc	.
16ee	.
16ee	.
8ee	.
8a	.
=4	=4
4b	.
qb	.
8cc	.
8b	.
=5	=5
8cc	.
16ee	.
16ee	.
8ee	.
8a	.
=6	=6
4b	.
qb	.
8cc	.
8b	.
=7	=7
8r	.
8a	.
4b	.
=8	=8
8b	.
8b	.
(8cc	.
8b)	.
=9	=9
8a	.
8a	.
8b	.
8a	.
=10	=10
(4f	.
8e)	.
8e	.
=11	=11
8r	.
8dd	.
8dd	.
8dd	.
=12	=12
8ee	.
8ee	.
8dd	.
8ee	.
=13	=13
8r	.
16ff	.
16ff	.
8ff	.
8aa	.
=14	=14
8ff	.
8ff	.
4ee	.
=15	=15
4cc	.
8ee	.
8ee	.
=16	=16
8cc	.
8cc	.
4b	.
=17	=17
8a	.
8a	.
8a	.
8f	.
=18	=18
8a	.
16a	.
16a	.
8a	.
8b	.
=19	=19
4cc	.
8cc	.
8b	.
=20	=20
8r	.
8cc	.
8r	.
8ee	.
=21	=21
8r	.
8ff	.
8r	.
8a	.
=22	=22
4b	.
qb	.
8cc	.
8b	.
=23	=23
8cc	.
16ee	.
16ee	.
8ee	.
8a	.
=24	=24
4b	.
4r;	.
==	==
*-	*-
!!!ENC: David Huron
!!!RDT: 2000/1/30
!!!EEV: Release 1.0
!!!ELF: 28/28
!!!YER: 2000/2/1
!!!YEM: Copyright David Huron, 2000
!!!YEN: United States of America
